packages/kaspersky-hexa-ui-icons/src/iconsSVGs/16x12/FlagSk.svg

<svg width="16" height="12" viewBox="0 0 16 12" fill="none" xmlns="http://www.w3.org/2000/svg">
<g clip-path="url(#clip0_41818_3680)">
<rect x="0.25" y="0.25" width="15.5" height="11.5" rx="1.75" fill="white" stroke="#F5F5F5" stroke-width="0.5"/>
<mask id="mask0_41818_3680" style="mask-type:luminance" maskUnits="userSpaceOnUse" x="0" y="0" width="16" height="12">
<rect x="0.25" y="0.25" width="15.5" height="11.5" rx="1.75" fill="white" stroke="white" stroke-width="0.5"/>
</mask>
<g mask="url(#mask0_41818_3680)">
<path fill-rule="evenodd" clip-rule="evenodd" d="M0 8H16V4H0V8Z" fill="#0C47B7"/>
<path fill-rule="evenodd" clip-rule="evenodd" d="M0 12H16V8H0V12Z" fill="#E53B35"/>
</g>
<g clip-path="url(#clip1_41818_3680)">
<mask id="path-5-outside-1_41818_3680" maskUnits="userSpaceOnUse" x="0.896362" y="0.939552" width="9" height="11" fill="black">
<rect fill="white" x="0.896362" y="0.939552" width="9" height="11"/>
<path fill-rule="evenodd" clip-rule="evenodd" d="M3.0112 4.22408C3.03746 3.50717 3.62626 2.93955 4.34364 2.93955H6.72525C7.44263 2.93955 8.03143 3.50717 8.05769 4.22408L8.1783 7.51666C8.19276 7.91142 8.03143 8.29227 7.73781 8.55653L6.87238 9.33542C6.11177 10.02 4.95713 10.02 4.19652 9.33542L3.33108 8.55653C3.03746 8.29227 2.87614 7.91142 2.8906 7.51666L3.0112 4.22408Z"/>
</mask>
<path fill-rule="evenodd" clip-rule="evenodd" d="M3.0112 4.22408C3.03746 3.50717 3.62626 2.93955 4.34364 2.93955H6.72525C7.44263 2.93955 8.03143 3.50717 8.05769 4.22408L8.1783 7.51666C8.19276 7.91142 8.03143 8.29227 7.73781 8.55653L6.87238 9.33542C6.11177 10.02 4.95713 10.02 4.19652 9.33542L3.33108 8.55653C3.03746 8.29227 2.87614 7.91142 2.8906 7.51666L3.0112 4.22408Z" fill="#F73744"/>
<path fill-rule="evenodd" clip-rule="evenodd" d="M3.0112 4.22408C3.03746 3.50717 3.62626 2.93955 4.34364 2.93955H6.72525C7.44263 2.93955 8.03143 3.50717 8.05769 4.22408L8.1783 7.51666C8.19276 7.91142 8.03143 8.29227 7.73781 8.55653L6.87238 9.33542C6.11177 10.02 4.95713 10.02 4.19652 9.33542L3.33108 8.55653C3.03746 8.29227 2.87614 7.91142 2.8906 7.51666L3.0112 4.22408Z" stroke="white" stroke-width="2.66667" mask="url(#path-5-outside-1_41818_3680)"/>
<mask id="mask1_41818_3680" style="mask-type:luminance" maskUnits="userSpaceOnUse" x="1" y="1" width="9" height="11">
<mask id="path-6-outside-2_41818_3680" maskUnits="userSpaceOnUse" x="0.896362" y="0.939552" width="9" height="11" fill="black">
<rect fill="white" x="0.896362" y="0.939552" width="9" height="11"/>
<path fill-rule="evenodd" clip-rule="evenodd" d="M3.0112 4.22408C3.03746 3.50717 3.62626 2.93955 4.34364 2.93955H6.72525C7.44263 2.93955 8.03143 3.50717 8.05769 4.22408L8.1783 7.51666C8.19276 7.91142 8.03143 8.29227 7.73781 8.55653L6.87238 9.33542C6.11177 10.02 4.95713 10.02 4.19652 9.33542L3.33108 8.55653C3.03746 8.29227 2.87614 7.91142 2.8906 7.51666L3.0112 4.22408Z"/>
</mask>
<path fill-rule="evenodd" clip-rule="evenodd" d="M3.0112 4.22408C3.03746 3.50717 3.62626 2.93955 4.34364 2.93955H6.72525C7.44263 2.93955 8.03143 3.50717 8.05769 4.22408L8.1783 7.51666C8.19276 7.91142 8.03143 8.29227 7.73781 8.55653L6.87238 9.33542C6.11177 10.02 4.95713 10.02 4.19652 9.33542L3.33108 8.55653C3.03746 8.29227 2.87614 7.91142 2.8906 7.51666L3.0112 4.22408Z" fill="white"/>
<path fill-rule="evenodd" clip-rule="evenodd" d="M3.0112 4.22408C3.03746 3.50717 3.62626 2.93955 4.34364 2.93955H6.72525C7.44263 2.93955 8.03143 3.50717 8.05769 4.22408L8.1783 7.51666C8.19276 7.91142 8.03143 8.29227 7.73781 8.55653L6.87238 9.33542C6.11177 10.02 4.95713 10.02 4.19652 9.33542L3.33108 8.55653C3.03746 8.29227 2.87614 7.91142 2.8906 7.51666L3.0112 4.22408Z" stroke="white" stroke-width="2.66667" mask="url(#path-6-outside-2_41818_3680)"/>
</mask>
<g mask="url(#mask1_41818_3680)">
<path fill-rule="evenodd" clip-rule="evenodd" d="M5.15348 7.27289C5.15348 7.08879 5.00424 6.93956 4.82014 6.93956H4.34395C4.15986 6.93956 4.01062 6.79032 4.01062 6.60622V6.47289C4.01062 6.28879 4.15986 6.13956 4.34395 6.13956H4.82014C5.00424 6.13956 5.15348 5.99032 5.15348 5.80622V5.67289C5.15348 5.48879 5.00424 5.33956 4.82014 5.33956H4.72491C4.54081 5.33956 4.39157 5.19032 4.39157 5.00622V4.87289C4.39157 4.68879 4.54081 4.53956 4.72491 4.53956H4.82014C5.00424 4.53956 5.15348 4.39032 5.15348 4.20622V4.07289C5.15348 3.88879 5.30272 3.73956 5.48681 3.73956H5.58205C5.76614 3.73956 5.91538 3.88879 5.91538 4.07289V4.20622C5.91538 4.39032 6.06462 4.53956 6.24872 4.53956H6.34395C6.52805 4.53956 6.67729 4.68879 6.67729 4.87289V5.00622C6.67729 5.19032 6.52805 5.33956 6.34395 5.33956H6.24872C6.06462 5.33956 5.91538 5.48879 5.91538 5.67289V5.80622C5.91538 5.99032 6.06462 6.13956 6.24872 6.13956H6.72491C6.909 6.13956 7.05824 6.28879 7.05824 6.47289V6.60622C7.05824 6.79032 6.909 6.93956 6.72491 6.93956H6.24872C6.06462 6.93956 5.91538 7.08879 5.91538 7.27289V8.20622C5.91538 8.39032 5.76614 8.53956 5.58205 8.53956H5.48681C5.30272 8.53956 5.15348 8.39032 5.15348 8.20622V7.27289Z" fill="white"/>
<path d="M5.53406 8.13942C5.83668 8.13942 6.09567 8.3261 6.21863 8.5945C7.14675 8.74716 7.82019 9.2024 7.82019 9.74001C7.81972 10.4025 6.79613 10.9392 5.53406 10.9392C4.27217 10.9391 3.24937 10.4025 3.2489 9.74001C3.2489 9.20252 3.9217 8.74629 4.84949 8.59352C4.97248 8.32552 5.2318 8.13959 5.53406 8.13942Z" fill="#1251A1"/>
</g>
</g>
</g>
<defs>
<clipPath id="clip0_41818_3680">
<rect width="16" height="12" fill="white"/>
</clipPath>
<clipPath id="clip1_41818_3680">
<rect width="5.71429" height="7.2" fill="white" transform="translate(2.66663 2.4)"/>
</clipPath>
</defs>
</svg>

<svg xmlns="http://www.w3.org/2000/svg" width="16" height="12" fill="none" viewBox="0 0 16 12"><g clip-path="url(#a)"><rect width="16" height="12" fill="#fff" stroke="#f5f5f5" rx="2"/><mask id="b" width="16" height="12" x="0" y="0" maskUnits="userSpaceOnUse" style="mask-type:luminance"><rect width="16" height="12" fill="#fff" stroke="#fff" rx="2"/></mask><g fill-rule="evenodd" clip-rule="evenodd" mask="url(#b)"><path fill="#0c47b7" d="M0 8h16V4H0z"/><path fill="#e53b35" d="M0 12h16V8H0z"/></g><g clip-path="url(#c)"><mask id="d" width="9" height="11" x="1" y="1" fill="#000" maskUnits="userSpaceOnUse"><path fill="#fff" d="M.8964.9396h9v11h-9z"/><path fill-rule="evenodd" d="M3.0112 4.224c.0263-.7168.615-1.2845 1.3324-1.2845h2.3816c.7174 0 1.3062.5677 1.3325 1.2846l.1206 3.2926a1.333 1.333 0 0 1-.4405 1.0398l-.8654.779c-.7606.6845-1.9153.6845-2.6759 0l-.8654-.779a1.333 1.333 0 0 1-.4405-1.0398z" clip-rule="evenodd"/></mask><path fill="#f73744" fill-rule="evenodd" d="M3.0112 4.224c.0263-.7168.615-1.2845 1.3324-1.2845h2.3816c.7174 0 1.3062.5677 1.3325 1.2846l.1206 3.2926a1.333 1.333 0 0 1-.4405 1.0398l-.8654.779c-.7606.6845-1.9153.6845-2.6759 0l-.8654-.779a1.333 1.333 0 0 1-.4405-1.0398z" clip-rule="evenodd"/><path stroke="#fff" stroke-width="3" d="M3.0112 4.224c.0263-.7168.615-1.2845 1.3324-1.2845h2.3816c.7174 0 1.3062.5677 1.3325 1.2846l.1206 3.2926a1.333 1.333 0 0 1-.4405 1.0398l-.8654.779c-.7606.6845-1.9153.6845-2.6759 0l-.8654-.779a1.333 1.333 0 0 1-.4405-1.0398z" clip-rule="evenodd" mask="url(#d)"/><mask id="f" width="9" height="11" x="1" y="1" maskUnits="userSpaceOnUse" style="mask-type:luminance"><mask id="e" width="9" height="11" x="1" y="1" fill="#000" maskUnits="userSpaceOnUse"><path fill="#fff" d="M.8964.9396h9v11h-9z"/><path fill-rule="evenodd" d="M3.0112 4.224c.0263-.7168.615-1.2845 1.3324-1.2845h2.3816c.7174 0 1.3062.5677 1.3325 1.2846l.1206 3.2926a1.333 1.333 0 0 1-.4405 1.0398l-.8654.779c-.7606.6845-1.9153.6845-2.6759 0l-.8654-.779a1.333 1.333 0 0 1-.4405-1.0398z" clip-rule="evenodd"/></mask><path fill="#fff" fill-rule="evenodd" d="M3.0112 4.224c.0263-.7168.615-1.2845 1.3324-1.2845h2.3816c.7174 0 1.3062.5677 1.3325 1.2846l.1206 3.2926a1.333 1.333 0 0 1-.4405 1.0398l-.8654.779c-.7606.6845-1.9153.6845-2.6759 0l-.8654-.779a1.333 1.333 0 0 1-.4405-1.0398z" clip-rule="evenodd"/><path fill-rule="evenodd" stroke="#fff" stroke-width="3" d="M3.0112 4.224c.0263-.7168.615-1.2845 1.3324-1.2845h2.3816c.7174 0 1.3062.5677 1.3325 1.2846l.1206 3.2926a1.333 1.333 0 0 1-.4405 1.0398l-.8654.779c-.7606.6845-1.9153.6845-2.6759 0l-.8654-.779a1.333 1.333 0 0 1-.4405-1.0398z" clip-rule="evenodd" mask="url(#e)"/></mask><g mask="url(#f)"><path fill="#fff" fill-rule="evenodd" d="M5.1535 7.2729a.3333.3333 0 0 0-.3334-.3333H4.344a.3333.3333 0 0 1-.3334-.3334V6.473a.3333.3333 0 0 1 .3334-.3333h.476a.3333.3333 0 0 0 .3334-.3334V5.673a.3333.3333 0 0 0-.3334-.3333h-.095a.3333.3333 0 0 1-.3333-.3334V4.873a.3333.3333 0 0 1 .3333-.3333h.0952a.3333.3333 0 0 0 .3334-.3334V4.073a.3333.3333 0 0 1 .3333-.3333h.0953c.184 0 .3333.1492.3333.3333v.1333c0 .1841.1492.3334.3333.3334h.0953a.3333.3333 0 0 1 .3333.3333v.1333a.3333.3333 0 0 1-.3333.3334h-.0953a.3333.3333 0 0 0-.3333.3333v.1333c0 .1841.1492.3334.3333.3334h.4762a.3333.3333 0 0 1 .3333.3333v.1333a.3333.3333 0 0 1-.3333.3334h-.4762a.3333.3333 0 0 0-.3333.3333v.9333a.3333.3333 0 0 1-.3334.3334h-.0952a.3333.3333 0 0 1-.3333-.3334z" clip-rule="evenodd"/><path fill="#1251a1" d="M5.534 8.1394c.3027 0 .5617.1867.6846.4551.9281.1527 1.6016.6079 1.6016 1.1455-.0005.6625-1.024 1.1992-2.2861 1.1992-1.262-.0001-2.2847-.5367-2.2852-1.1992 0-.5375.6728-.9937 1.6006-1.1465.123-.268.3823-.454.6846-.454"/></g></g></g><defs><clipPath id="a"><path fill="#fff" d="M0 0h16v12H0z"/></clipPath><clipPath id="c"><path fill="#fff" d="M2.6666 2.4H8.381v7.2H2.6666z"/></clipPath></defs></svg>
